public/assets/images/sawtic-white-logo.svg

<svg width="232" height="65" viewBox="0 0 232 65" fill="none" xmlns="http://www.w3.org/2000/svg">
<path d="M60.2268 53.6747V26.7647C60.2268 25.63 60.5028 24.5873 61.0548 23.6367C61.6068 22.686 62.3581 21.9347 63.3088 21.3827C64.2594 20.8307 65.3021 20.5547 66.4368 20.5547H87.1368C88.2714 20.5547 89.2988 20.8307 90.2188 21.3827C91.1694 21.9347 91.9208 22.686 92.4728 23.6367C93.0554 24.5873 93.3468 25.63 93.3468 26.7647V53.6747H87.7808V42.3127H65.7468V53.6747H60.2268ZM65.7468 36.7927H87.7808V26.9487C87.7808 26.7033 87.6888 26.504 87.5048 26.3507C87.3514 26.1973 87.1674 26.1207 86.9528 26.1207H66.5748C66.3601 26.1207 66.1608 26.1973 65.9768 26.3507C65.8234 26.504 65.7468 26.7033 65.7468 26.9487V36.7927ZM108.057 53.6747L96.0047 20.5547H101.893L110.265 43.5087L118.637 20.5547H124.249L132.667 43.5087L141.039 20.5547H146.927L134.875 53.6747H130.413L121.443 29.0647L112.473 53.6747H108.057ZM163.335 53.6747V26.1207H149.535V20.5547H182.655V26.1207H168.855V53.6747H163.335ZM185.728 53.6747V20.5547H191.202V53.6747H185.728ZM202.144 53.6747C201.009 53.6747 199.966 53.3987 199.016 52.8467C198.065 52.2947 197.314 51.5433 196.762 50.5927C196.21 49.642 195.934 48.5993 195.934 47.4647V26.7647C195.934 25.63 196.21 24.5873 196.762 23.6367C197.314 22.686 198.065 21.9347 199.016 21.3827C199.966 20.8307 201.009 20.5547 202.144 20.5547H228.962V26.1207H203.11C202.619 26.1207 202.22 26.274 201.914 26.5807C201.607 26.8567 201.454 27.24 201.454 27.7307V46.4987C201.454 46.9893 201.607 47.388 201.914 47.6947C202.22 47.9707 202.619 48.1087 203.11 48.1087H228.962V53.6747H202.144Z" fill="white"/>
<path d="M28.296 0.317261C43.2621 0.243259 56.5204 12.1272 56.0733 27.0868C55.7103 39.233 56.4167 50.1906 58.5538 61.1073C49.8812 58.3921 42.0027 57.4967 33.1788 58.1034C15.9552 59.2876 0.294864 46.4397 0.0283966 29.1776C0.0237616 28.877 0.0186597 28.5756 0.0127716 28.2743C-0.291374 12.7093 12.7282 0.394386 28.296 0.317261ZM26.1212 20.5546C24.9865 20.5546 23.9439 20.8307 22.9932 21.3827C22.0733 21.9347 21.3372 22.686 20.7852 23.6366C20.2333 24.5872 19.9571 25.6299 19.9571 26.7645V33.7108C19.9571 34.8454 20.2333 35.8882 20.7852 36.8387C21.3372 37.7587 22.0733 38.4948 22.9932 39.0468C23.9439 39.5987 24.9866 39.8749 26.1212 39.8749H46.6368C46.8821 39.8749 47.0821 39.9663 47.2354 40.1503C47.4194 40.3036 47.5108 40.4883 47.5108 40.703V47.2802C47.5108 47.5255 47.4194 47.7255 47.2354 47.8788C47.0821 48.0321 46.8821 48.1083 46.6368 48.1083H26.3048C26.0597 48.1082 25.8603 48.032 25.7071 47.8788C25.5538 47.7255 25.4776 47.5255 25.4776 47.2802V45.2567H19.9571V47.4647C19.9571 48.5993 20.2333 49.642 20.7852 50.5927C21.3372 51.5433 22.0733 52.2946 22.9932 52.8466C23.9439 53.3985 24.9865 53.6747 26.1212 53.6747H46.8673C48.0019 53.6747 49.0293 53.3986 49.9493 52.8466C50.8999 52.2946 51.6512 51.5433 52.2032 50.5927C52.7858 49.642 53.0772 48.5993 53.0772 47.4647V40.5184C53.0772 39.3838 52.7858 38.3564 52.2032 37.4364C51.6512 36.4858 50.8999 35.7345 49.9493 35.1825C49.0293 34.6305 48.0019 34.3544 46.8673 34.3544H26.3048C26.0597 34.3543 25.8603 34.278 25.7071 34.1249C25.5538 33.9409 25.4776 33.7409 25.4776 33.5262V26.9481C25.4777 26.703 25.5539 26.5037 25.7071 26.3505C25.8603 26.1972 26.0597 26.1211 26.3048 26.121H46.6368C46.8821 26.121 47.0821 26.1971 47.2354 26.3505C47.4193 26.5037 47.5107 26.703 47.5108 26.9481V28.9725H53.0772V26.7645C53.0772 25.6299 52.7859 24.5873 52.2032 23.6366C51.6512 22.686 50.8999 21.9347 49.9493 21.3827C49.0293 20.8307 48.0019 20.5546 46.8673 20.5546H26.1212ZM25.0606 6.05164C19.3027 6.05173 14.4172 8.12036 10.9786 11.7587C7.55102 15.3855 5.69441 20.4283 5.69441 26.1552H9.69441C9.69441 21.2937 11.2608 17.2844 13.8858 14.5067C16.5 11.7407 20.2983 10.0517 25.0606 10.0516V6.05164ZM25.0606 13.4843C21.5992 13.4843 18.6095 14.7333 16.4923 16.9735C14.386 19.2022 13.2765 22.2691 13.2764 25.6844H17.2764C17.2765 23.1343 18.0956 21.1002 19.3995 19.7206C20.6924 18.3527 22.595 17.4843 25.0606 17.4843V13.4843Z" fill="#168962"/>
</svg>

<svg width="232" height="65" fill="none" xmlns="http://www.w3.org/2000/svg"><path d="M60.227 53.675v-26.91c0-1.135.276-2.178.828-3.128a6.113 6.113 0 0 1 2.254-2.254 6.118 6.118 0 0 1 3.128-.828h20.7c1.134 0 2.162.276 3.082.828a6.113 6.113 0 0 1 2.254 2.254c.582.95.874 1.993.874 3.128v26.91H87.78V42.313H65.747v11.362h-5.52zm5.52-16.882H87.78v-9.844a.742.742 0 0 0-.276-.598.753.753 0 0 0-.552-.23H66.575a.916.916 0 0 0-.598.23.809.809 0 0 0-.23.598v9.844zm42.31 16.882-12.052-33.12h5.888l8.372 22.954 8.372-22.954h5.612l8.418 22.954 8.372-22.954h5.888l-12.052 33.12h-4.462l-8.97-24.61-8.97 24.61h-4.416zm55.278 0V26.12h-13.8v-5.566h33.12v5.566h-13.8v27.554h-5.52zm22.393 0v-33.12h5.474v33.12h-5.474zm16.416 0a6.116 6.116 0 0 1-3.128-.828 6.111 6.111 0 0 1-2.254-2.254 6.119 6.119 0 0 1-.828-3.128v-20.7c0-1.135.276-2.178.828-3.128a6.11 6.11 0 0 1 2.254-2.254 6.116 6.116 0 0 1 3.128-.828h26.818v5.566H203.11c-.491 0-.89.153-1.196.46-.307.276-.46.659-.46 1.15v18.768c0 .49.153.889.46 1.196.306.276.705.414 1.196.414h25.852v5.566h-26.818z" fill="#fff"/><path d="M28.296.318c14.966-.074 28.225 11.81 27.778 26.769-.363 12.146.343 23.104 2.48 34.02-8.672-2.715-16.551-3.61-25.375-3.003C15.955 59.288.295 46.439.03 29.177l-.017-.902C-.292 12.708 12.728.395 28.296.317z" fill="#168962"/><path d="M25.121 53.675a6.119 6.119 0 0 1-3.128-.828 6.226 6.226 0 0 1-2.208-2.254 6.119 6.119 0 0 1-.828-3.128v-2.208h5.52v2.024a.81.81 0 0 0 .23.598.81.81 0 0 0 .598.23h20.332a.809.809 0 0 0 .598-.23.742.742 0 0 0 .276-.598v-6.578a.696.696 0 0 0-.276-.552.742.742 0 0 0-.598-.276H25.121a6.119 6.119 0 0 1-3.128-.828 6.343 6.343 0 0 1-2.208-2.208 6.119 6.119 0 0 1-.828-3.128v-6.946c0-1.135.276-2.178.828-3.128a6.226 6.226 0 0 1 2.208-2.254 6.119 6.119 0 0 1 3.128-.828h20.746c1.135 0 2.162.276 3.082.828a6.113 6.113 0 0 1 2.254 2.254c.583.95.874 1.993.874 3.128v2.208h-5.566v-2.024a.742.742 0 0 0-.276-.598.809.809 0 0 0-.598-.23H25.305a.809.809 0 0 0-.598.23.809.809 0 0 0-.23.598v6.578c0 .214.077.414.23.598a.81.81 0 0 0 .598.23h20.562c1.135 0 2.162.276 3.082.828a6.113 6.113 0 0 1 2.254 2.254c.583.92.874 1.947.874 3.082v6.946a5.872 5.872 0 0 1-.874 3.128 6.113 6.113 0 0 1-2.254 2.254c-.92.552-1.947.828-3.082.828H25.121z" fill="#fff"/><path d="M24.061 15.485c-5.927 0-9.784 4.233-9.784 10.2M25.061 8.052c-10.52 0-17.366 7.514-17.366 18.103" stroke="#fff" stroke-width="4"/></svg>
